X:1
T:THELMA.
T:THELMA.
T:March and Two Step.
T:OTTO PANKOFF.
T:Copyright 1897 by Watson Pankoff Music Co.
T:Copyright 1897 by Watson Pankoff Music Co.
T:Copyright 1897 by Watson Pankoff Music Co.
C:OTOO PANKOFF.
Z:Copyright 1897 by Watson Pankoff Music Co.
%%score { 1 | 2 }
L:1/8
Q:1/4=160
M:6/8
K:D
V:1 treble nm="Piano" snm="Pno."
V:2 treble 
V:1
!ff! a^gb a z z | A^GB A z z | A,^G,B, A, z z | z2 z!mf! (F2 G) | [Fd] z z ((!>![Fd]3 | %5
 [Fc])) z z ((!>![Fc]3 | [Fc])) z z !>![FB]3- | [FB]!<(!zA AFA | dzc ezd | gzf ezd!<)! | %10
!ff! [Gc]6 | [GB] z z (G2!mf! B) | [Ge] z z ((!>![Ge]3 | [^Gd])) z z ((!>![Gd]3 | %14
 [=Gc])) z z !>![Gc]3- | [Gc]zA Ace | !>![Aca]3 !>![Acg]3 | !>![Acf]3 !>![Ace]3 |!ff! (([B^e]6 | %19
 [Af])) z z!mf! (F2 A) | [Fd] z z ((!>![Fd]3 | [Fc])) z z ((!>![Fc]3 | [Fc])) z z !>![FB]3- | %23
 [FB]zA AFA | dzc ezd | gzf ezd | (^d3- d2 e) | B z z (B2 e) | [Bea]z[Bea] !>![Bea]3 | %29
 [_Beg]z[Beg] !>![Beg]3 | [Adg] z z !>![Adf]3- | [Adf]z[Adf] [Bdg]z[Adf] | !>![^Gdf]3 !>![Gde]3 | %33
 !>![=Gcf]3 !>![Gce]3 | dA^G BAF | D2 z !>![DFAd]2 z |:!ff! [dd']3 [Ff]3 | [cc']3 [Ff]3 | %38
!mf! fff fed | g2 g g3 |!ff! [dd']3 [Gg]3 | [cc']3 [Ee]3 |!mf! ggg gfe | b2 _b a3 | %44
!ff! [dd']3 [Ff]3 | [cc']3 [Ff]3 | [=c=c']2 [cc'] [cc'][Bb][Aa] | [Aa]2 [_A_a] [Gg]3 | %48
 [Gg][Gg][Gg] [Gg][Ff][Ee] | [Aa]3 [dd']3 | [Ff]3 [Ee]3 ||1 %51
 !>![Dd]!>![Aa]!>![^A^a] !>![Bb]!>![=c=c']!>![^c^c'] :|2 [Dd] z z [dfad'] z z || %53
[K:G][M:6/8]!p! (B,3 C3) | (^C3 D3) | (^D3 E3) | (F3 E3) | (E2 D ^C2 D) | (B3- B2 A) | %59
 (A2 G F2 G) | !>![Ee]3 !>![Dd]3 | (B,3 C3) | (^C3 D3) | (^D3 E3) | (F3 E3) | (E2 D ^C2 D) | %66
 (B3- B2 A) | (([CD-FA]6 | [B,DG]2)) z !>![Gg]2 z |!p! .b.^a.b .c'.b.^a | bzg e z z | %71
!ff! .B.F.G .A.G.F | .E z z z2 z |!p! .a.^g.a .b.a.g | .az.f .d z z |!ff! .A.E.F .G.F.E | %76
 .D z z z2 z |!ff!"^Marcato." !>![GB]3 !>![Ac]3 | !>![^A^c]3 !>![Bd]3 | !>![c_e]3 !>![c=e]3 | %80
 !>![cf]3 !>![ce]3 | [Ee]2 [Dd] [^C^c]2 [Dd] | [Bb]3- [Bb]2 [Aa] | [Aa]2 [Gg] [Ff]2 [Gg] | %84
 !>![ee']3 !>![dd']3 | !>![GB]3 !>![Ac]3 | !>![^A^c]3 !>![Bd]3 | !>![c_e]3 !>![c=e]3 | %88
 !>![cf]3 !>![ce]3 | [Ee]2 [Dd] [^C^c]2 [Dd] | [Bb]3- [Bb]2 [ca] | (([cd-a]6 | %92
 [Bdg])) z z!8va(! !>![gbd'g']!8va)! z z |] %93
V:2
 [Aceg][Aceg][Aceg] [Aceg] z z |[K:bass] [A,CEG][A,CEG][A,CEG] [A,CEG] z z | %2
 [A,,C,E,G,][A,,C,E,G,][A,,C,E,G,] [A,,C,E,G,] z z | [A,,,A,,]3 z2 z | %4
 [D,,D,]2 [F,A,D] !>![F,A,D]3 | [A,,,A,,]2 [F,A,D] !>![F,A,D]3 | %6
 [D,,D,]2 [F,A,D] [F,A,D]2 [F,A,D] | [A,,,A,,]2 [F,A,D] [F,A,D]2 [F,A,D] | %8
 [D,,D,]2 [F,A,D] [F,A,D]2 [F,A,D] | [F,,,F,,]2 [F,A,D] [F,^A,D]2 [F,A,D] | %10
 [G,,,G,,][G,B,E][G,B,E] [G,B,E][G,B,E][G,B,E] | [G,B,E] z z [G,B,E]3 | [E,,E,]2 [G,B,E] [G,B,E]3 | %13
 [^A,,,^A,,]2 [=F,^G,_B,D] [F,G,B,D]3 | [=A,,,=A,,]2 [E,G,A,C] [E,G,A,C]2 [E,G,A,C] | %15
 [A,,,A,,]2 [E,G,A,C] [E,G,A,C]2 [E,G,A,C] | A,,z[G,A,C] C,z[G,A,C] | E,z[G,A,C] A,,z[G,A,C] | %18
 [D,=F,^G,B,][D,F,G,B,][D,F,G,B,] [D,F,G,B,][D,F,G,B,][D,F,G,B,] | [D,F,A,] z z z2 z | %20
 [D,,D,]2 [F,A,D] !>![F,A,D]3 | [A,,,A,,]2 [F,A,D] !>![F,A,D]3 | %22
 [D,,D,]2 [F,A,D] [F,A,D]2 [F,A,D] | [A,,,A,,]2 [F,A,D] [F,A,D]2 [F,A,D] | %24
 [D,,D,]2 [F,A,D] [F,A,D]2 [F,A,D] | [F,,,F,,]2 [F,A,D] [F,^A,D]2 [F,A,D] | %26
 [G,,,G,,]2 [G,B,E] [G,B,E]2 [G,B,E] | [G,,,G,,]2 [G,B,E] [G,B,E]2 [G,B,E] | %28
 [G,,,G,,]2 [G,B,E] !>![G,B,E]3 | [G,,,G,,]2 [G,_B,E] !>![G,B,E]3 | %30
 [A,,,A,,]2 [F,A,D] [F,A,D]2 [F,A,D] | [A,,,A,,]2 [F,A,D] [G,B,D]2 [F,A,D] | %32
 E,z[^G,B,D] E,z[G,B,D] | A,,z[=G,A,C] A,,z[G,A,C] | DA,^G, B,A,F, | D,2 z !>![D,,D,]2 z |: %36
 D,z[F,A,D] A,,z[F,A,D] | D,z[F,A,D] A,,z[F,A,D] | [D,,D,]2 [F,A,D] [F,A,D]2 [F,A,D] | %39
 [E,,E,]2 [G,A,C] [G,A,C]2 [G,A,C] | E,z[G,A,C] A,,z[G,A,C] | E,z[G,A,C] A,,z[G,A,C] | %42
 [A,,,A,,]2 [G,A,C] [G,A,C]2 [G,A,C] | [D,,D,]2 [F,A,D] [F,A,D]2 [F,A,D] | D,z[F,A,D] A,,z[F,A,D] | %45
 D,z[F,A,D] A,,z[F,A,D] | [D,,D,]2 [F,A,=C] [F,A,C]2 [F,A,C] | [G,,,G,,]2 [G,B,E] [G,B,E]3 | %48
 E,2 [G,B,E] [G,B,E]2 [G,B,E] | F,z[A,D] G,z[B,E] | A,,z[G,A,C] A,,z[G,A,C] ||1 %51
 !>![D,,D,]!>![A,,A,]!>![^A,,^A,] !>![B,,B,]!>![=C,=C]!>![^C,^C] :|2 [F,A,] z z [D,,D,] z z || %53
[K:G][M:6/8] G,,z[B,,D,G,] A,,z[C,D,F,] | ^A,,z[^C,E,G,] B,,z[D,G,B,] | C,z[E,A,C] C,z[E,A,C] | %56
 A,,z[E,A,C] C,z[E,A,C] | D,z[A,C] F,z[A,C] | D,z[A,C] F,z[A,C] | G,,z[D,G,B,] B,,z[D,G,B,] | %60
 !>![G,_B,^C]3 !>![F,A,=C]3 | G,,z[B,,D,G,] A,,z[C,D,F,] | ^A,,z[^C,E,G,] B,,z[D,G,B,] | %63
 C,z[E,A,C] C,z[E,A,C] | A,,z[E,A,C] C,z[E,A,C] | D,z[A,C] F,z[A,C] | D,z[A,C] F,z[A,C] | %67
 z !>![D,,D,]!>![^D,,^D,] !>![E,,E,]!>![=F,,=F,]!>![^F,,^F,] | [G,,G,]2 z !>![G,,G,]2 z | %69
[K:treble] [B,^DFA][B,DFA][B,DFA] [B,DFA][B,DFA][B,DFA] | [B,EG]z[B,EG] [B,EG] z z | %71
[K:bass] .B,.F,.G, .A,.G,.F, | .E, z z [E,,,E,,] z z | %73
[K:treble] .[A,^CEG].[A,CEG].[A,CEG] .[A,CEG].[A,CEG].[A,CEG] | .[A,DF]z.[A,DF] [A,DF] z z | %75
[K:bass] .A,.E,.F, .G,.F,.E, | .D, z z [D,,,D,,] z z | G,,z[B,,D,G,] A,,z[C,D,F,] | %78
 ^A,,z[^C,E,G,] B,,z[D,G,B,] | C,z[E,A,C] C,z[E,A,C] | A,,z[E,A,C] C,z[E,A,C] | %81
 D,z[F,A,C] D,z[F,A,C] | D,z[F,A,C] D,z[F,A,C] | G,,z[G,B,D] B,,z[G,B,D] | [^A,^CG]3 [=A,=CF]3 | %85
 G,,z[B,,D,G,] A,,z[C,D,F,] | ^A,,z[^C,E,G,] B,,z[D,G,B,] | C,z[E,A,C] C,z[E,A,C] | %88
 A,,z[E,A,C] C,z[E,A,C] | D,z[A,C] F,z[A,C] | D,z[A,C] F,z[A,C] | %91
 z !>![D,,D,]!>![^D,,^D,] !>![E,,E,]!>![=F,,=F,]!>![^F,,^F,] | %92
 !>![G,,G,] z z"^D.C." !>![G,,,G,,] z z |] %93

